src/3-context/sign--turn-default.svg

<svg width="1300" height="1000" viewBox="0 0 1300 1000" fill="none" xmlns="http://www.w3.org/2000/svg"><path fill-rule="evenodd" clip-rule="evenodd" d="M241.043 150c-3.198 0-5.943-.827-8.235-2.482-2.279-1.668-4.034-4.071-5.264-7.209-1.217-3.151-1.825-6.944-1.825-11.379.013-4.434.628-8.208 1.845-11.319 1.23-3.124 2.984-5.507 5.263-7.149 2.292-1.641 5.031-2.462 8.216-2.462 3.185 0 5.924.821 8.216 2.462 2.292 1.642 4.046 4.025 5.264 7.149 1.23 3.125 1.845 6.898 1.845 11.319 0 4.449-.615 8.248-1.845 11.399-1.218 3.138-2.972 5.534-5.264 7.189-2.279 1.655-5.018 2.482-8.216 2.482Zm0-6.216c2.486 0 4.448-1.251 5.885-3.753 1.45-2.515 2.176-6.215 2.176-11.101 0-3.23-.331-5.944-.991-8.141-.66-2.198-1.593-3.853-2.797-4.965-1.204-1.125-2.628-1.688-4.273-1.688-2.473 0-4.428 1.258-5.866 3.773-1.437 2.502-2.162 6.176-2.175 11.021-.013 3.244.304 5.971.952 8.182.66 2.211 1.593 3.879 2.797 5.004 1.204 1.112 2.635 1.668 4.292 1.668Zm-61.535 2.952a3.618 3.618 0 1 1-6.857-2.305l10.904-31.669a6.24 6.24 0 0 1 11.794-.002l10.92 31.67c.81 2.348-.935 4.796-3.419 4.796a3.616 3.616 0 0 1-3.436-2.488l-2.478-7.541h-14.955l-2.473 7.539Zm10.099-29.84 5.384 16.383h-11.069l5.374-16.383h.311Z" fill="#000"/><path d="M279 113.556a5 5 0 0 0-5-5h-.361c-.975 0-1.93.285-2.745.821l-7.361 4.835a2.828 2.828 0 0 0-1.275 2.364c0 2.247 2.493 3.597 4.375 2.368l4.928-3.219h.233v29.898a3.603 3.603 0 0 0 7.206 0v-32.067Z" fill="#000"/><path fill-rule="evenodd" clip-rule="evenodd" d="M137 0h-7v69h-15c-8.284 0-15 6.716-15 15v90c0 8.284 6.716 15 15 15h220c8.284 0 15-6.716 15-15V84c0-8.284-6.716-15-15-15h-15V0h-7v69H137V0Zm196 76c5.523 0 10 4.477 10 10v86c0 5.523-4.477 10-10 10H117c-5.523 0-10-4.477-10-10V86c0-5.523 4.477-10 10-10h216Z" fill="#000"/></svg>

<svg width="1300" height="1000" viewBox="0 0 1300 1000" fill="none" xmlns="http://www.w3.org/2000/svg">
<path fill-rule="evenodd" clip-rule="evenodd" d="M241.043 150C237.845 150 235.1 149.173 232.808 147.518C230.529 145.85 228.774 143.447 227.544 140.309C226.327 137.158 225.719 133.365 225.719 128.93C225.732 124.496 226.347 120.722 227.564 117.611C228.794 114.487 230.548 112.104 232.827 110.462C235.119 108.821 237.858 108 241.043 108C244.228 108 246.967 108.821 249.259 110.462C251.551 112.104 253.305 114.487 254.523 117.611C255.753 120.736 256.368 124.509 256.368 128.93C256.368 133.379 255.753 137.178 254.523 140.329C253.305 143.467 251.551 145.863 249.259 147.518C246.98 149.173 244.241 150 241.043 150ZM241.043 143.784C243.529 143.784 245.491 142.533 246.928 140.031C248.378 137.516 249.104 133.816 249.104 128.93C249.104 125.7 248.773 122.986 248.113 120.789C247.453 118.591 246.52 116.936 245.316 115.824C244.112 114.699 242.688 114.136 241.043 114.136C238.57 114.136 236.615 115.394 235.177 117.909C233.74 120.411 233.015 124.085 233.002 128.93C232.989 132.174 233.306 134.901 233.954 137.112C234.614 139.323 235.547 140.991 236.751 142.116C237.955 143.228 239.386 143.784 241.043 143.784Z" fill="black"/>
<path fill-rule="evenodd" clip-rule="evenodd" d="M179.508 146.736C179.021 148.221 177.634 149.226 176.071 149.226C173.587 149.226 171.842 146.779 172.651 144.431L183.555 112.762C184.422 110.246 186.791 108.556 189.453 108.556C192.114 108.556 194.482 110.244 195.349 112.76L206.269 144.43C207.079 146.778 205.334 149.226 202.85 149.226C201.287 149.226 199.901 148.222 199.414 146.738L196.936 139.197H181.981L179.508 146.736ZM189.607 116.896L194.991 133.279H183.922L189.296 116.896H189.607Z" fill="black"/>
<path d="M279 113.556C279 110.795 276.761 108.556 274 108.556H273.639C272.664 108.556 271.709 108.841 270.894 109.377L263.533 114.212C262.737 114.735 262.258 115.623 262.258 116.576C262.258 118.823 264.751 120.173 266.633 118.944L271.561 115.725H271.794V145.623C271.794 147.612 273.407 149.226 275.397 149.226C277.387 149.226 279 147.612 279 145.623V113.556Z" fill="black"/>
<path fill-rule="evenodd" clip-rule="evenodd" d="M137 0H130V69H115C106.716 69 100 75.7157 100 84V174C100 182.284 106.716 189 115 189H335C343.284 189 350 182.284 350 174V84C350 75.7157 343.284 69 335 69H320V0H313V69H137V0ZM333 76C338.523 76 343 80.4771 343 86V172C343 177.523 338.523 182 333 182H117C111.477 182 107 177.523 107 172V86C107 80.4771 111.477 76 117 76H333Z" fill="black"/>
</svg>
